X:1
T:He’ll Come Again
T:He’ll Come Again
T:William James Kirkpatrick
T:Johnson Oatman, Jr., 1900
T:Public Domain Courtesy of the Cyber Hymnal™
T:Public Domain Courtesy of the Cyber Hymnal™
C:William James Kirkpatrick
Z:Public Domain
Z:Courtesy of the Cyber Hymnal™
%%score ( 1 2 ) ( 3 4 )
L:1/8
Q:1/4=83
M:2/4
K:G
V:1 treble 
V:2 treble 
V:3 bass 
V:4 bass 
V:1
 [B,G] | [DB][DB] [CA][DB] | [B,G][B,G] [B,D]2 | [B,G] [B,G]2 [B,G] | %4
w: 1.~As|once to earth the|Sav- ior came,|Some- time He’ll|
w: 2.~Tell|ev- ery- where with|great de- light,|Some- time He’ll|
w: 3.~O’er|all the earth the|tid- ings ring,|Some- time He’ll|
w: 4.~When|dawns that bless- èd|morn- ing fair,|Some- time He’ll|
w: 5.~O|let us live and|do our best,|Some- time He’ll|
 [CA]>[B,G] !fermata![B,G][B,G] | [DB][DB] [CA][DB] | [B,G][B,G] [B,D]2 | [B,G] [B,G]2 [B,G] | %8
w: come a- gain; The|sky with heav’n- ly|light a- flame,|Some- time He’ll|
w: come a- gain; Up-|on the clouds of|glo- ry bright,|Some- time He’ll|
w: come a- gain; Not|as a babe, but|as a king,|Some- time He’ll|
w: come a- gain; His|saints will meet Him|in the air,|Some- time He’ll|
w: come a- gain; Then|He will take us|home to rest,|Some- time He’ll|
 [CA]>[B,G] [B,G]2 ||"^Refrain" B (z GG) | e (z GG) | [GB][GB] [DA] G2 | !fermata![Fd]3 [DG] | %13
w: come a- gain.|||||
w: come a- gain.|||||
w: come a- gain.|Some- * *||* time, some- time,|Christ shall|
w: come a- gain.|||||
w: come a- gain.|||||
 [GB][GB] [DG][B,D] | [CE] [EG]3 | [DB] [DB]2 G | [FA]>[DG] !fermata![DG] |] %17
w: ||||
w: ||||
w: come to reign. Pre-|pare my|soul to meet|Him, Some- time|
w: ||||
w: ||||
V:2
 x | x4 | x4 | x4 | x4 | x4 | x4 | x4 | x4 || x d3 | x d3 | x3 (^C/G/) x | x4 | x4 | x4 | x3 G | %16
 x3 |] %17
V:3
 [G,,G,] | [G,,G,][G,,G,] [G,,D,][G,,D,] | [G,,D,][G,,D,] [G,,G,]2 | [E,G,] [E,G,]2 [E,G,] | %4
w: ~|~ ~ ~ ~|~ ~ ~|~ ~ ~|
 [D,F,]>[G,,G,] !fermata![G,,G,][G,,G,] | [G,,G,][G,,G,] [G,,D,][G,,D,] | [G,,D,][G,,D,] [G,,G,]2 | %7
w: ~ ~ ~ ~|~ ~ ~ ~|~ ~ ~|
 [E,G,] [E,G,]2 [E,G,] | [D,F,]>[G,,G,] [G,,G,]2 || G, z G,G, | C z [G,,G,][G,,G,] | %11
w: ~ ~ ~|~ ~ ~|~ ~ Some-|time, some- time,|
 [G,D][G,D] [F,A,][E,A,] x | !fermata![D,A,]3 [G,B,] | [G,,G,D][G,,G,D] [G,,G,B,][G,,G,] | %14
w: |||
 [C,G,] [C,G,]3 | [D,G,] [D,G,]2 [D,B,] | [D,C]>[G,,B,] !fermata![G,,B,] |] %17
w: |||
V:4
 x | x4 | x4 | x4 | x4 | x4 | x4 | x4 | x4 || x B,3 | x B,3 | x5 | x4 | x4 | x4 | x4 | x3 |] %17

